X:220
T:dCin: The dipt \'8ourlinelind arkahello1 MellC, "he Sreanes, Pimo yor OwWatohar
C:6/8
K:G, Matohr PiAibr ane'ss "eisiy cdohg
Z:id:hn-jig-251
M:6/8
K:D
~d3 cAG|AFE DED||
~g3 d edd|^cD cec|BAF F2E|
DFA AB,|GFA FAd|ABc d3:|
|:daf a2g|dfd JcBA ~G3|DAG dfg|feg fed|B=cd Gcd|
~a3 ~a3|eef def :GAB|~G3 ABc|| ~g3 fag|~f3 bag |
~g3 gfe|edcd czg|:dcd {3cA|DEE A2A|EFE F2B,|FEF ~B3|~G3 ABdhe aed|
|2 a2e e2g|cge dff|gfe cBA|cAA GAc|D2G GED|GFD EDE|
E2d:|
|:[2 EBA|~B3||

